tools/download-figma-icons/icons/solid/enercity-e.svg

<svg width="24" height="24" viewBox="0 0 24 24" fill="none" xmlns="http://www.w3.org/2000/svg">
<path fill-rule="evenodd" clip-rule="evenodd" d="M12.0001 5.85102C14.4069 5.85102 15.9826 7.22277 16.1574 9.75177H7.49263C7.92988 7.48002 9.63763 5.85102 12.0001 5.85102ZM3.00012 11.2518C3.00012 16.468 6.82662 20.2548 11.8846 20.2548C15.6676 20.2548 18.0429 18.9085 20.1099 16.4268L16.9861 13.987C16.0186 15.5853 13.8639 16.5948 11.8846 16.5948C9.68562 16.5948 7.70562 14.9545 7.35462 12.8508H20.2411C20.2854 12.388 20.3289 11.5885 20.3289 11.2518C20.3289 6.33026 17.5584 2.24951 11.8404 2.24951C6.82662 2.24951 3.00012 6.07826 3.00012 11.2518Z" fill="black"/>
</svg>

<svg xmlns="http://www.w3.org/2000/svg" width="24" height="24" fill="none" viewBox="0 0 24 24"><path fill="currentColor" fill-rule="evenodd" d="M12 5.851c2.407 0 3.983 1.372 4.157 3.9H7.493c.437-2.271 2.145-3.9 4.507-3.9m-9 5.4c0 5.217 3.827 9.004 8.885 9.004 3.783 0 6.158-1.346 8.225-3.828l-3.124-2.44c-.967 1.598-3.122 2.608-5.101 2.608-2.2 0-4.18-1.64-4.53-3.744H20.24a23 23 0 0 0 .088-1.6c0-4.92-2.77-9.001-8.489-9.001C6.827 2.25 3 6.078 3 11.252" clip-rule="evenodd"/></svg>
